X:1
T:Title
%%score { ( 1 4 ) | ( 2 3 ) }
L:1/8
Q:1/4=113
M:6/8
K:D
V:1 treble nm="Grand Piano"
V:4 treble 
V:2 bass 
V:3 bass 
V:1
 [FA]3 [Fd]2 [Fc] | [=FB]3 .[A,EA]3 | [A,DF]2 [A,DF] [B,FA]2 [B,EG] | [DF]3 E3 | [A,CE]3 F2 E | %5
w: Frank~Pincott * *|||||
 A3 A3 | A2 A BA^G | [CA]6 | A3 G2 F | B3- B2 [FA] | G2 G A2 G | F6 | E3 A2 d | d2 B A2 F | %14
w: |||||||||
 [CF]3 [CE]3 | D6 |] %16
w: ||
V:2
 [D,A,]3 [D,A,]2 [D,A,] | [D,^G,]3 z2 G | D,2 D, G,,2 G,, | z3 C3 | A,,3 [A,C]2 [G,A,C] | %5
 [F,A,D]3 [=F,=C^D]3 | z3 .D3 | [A,,A,]6 | [D,F,D]3 [E,G,C]2 [F,A,D] | [G,B,D]3- [G,B,D]2 [^D,B,] | %10
 [E,B,E]2 [E,B,D] [E,CE]2 [E,B,D] | [F,^A,C]6 | [G,A,C]3 [F,D]2[K:treble] [=CDF] | %13
 [B,DG]2 [^G,D=F] [A,D^F]2 [A,D] | [A,,A,]3 [A,,G,]3 | [D,F,]6 |] %16
V:3
 x6 | z3 C,3 | x6 | A,,6 | x6 | x6 | [E,CE]2 [E,B,E] [E,E]-[E,B,E][E,B,D] | x6 | x6 | x6 | x6 | %11
 x6 | x5[K:treble] x | x6 | x6 | x6 |] %16
V:4
 x6 | x6 | x6 | A,6 | x6 | x6 | x6 | x6 | x6 | x6 | x6 | x6 | x6 | x6 | x6 | x6 |] %16

